X:1
T: Miss Napier of Merchiston Hall's Reel
C:R. Mackintosh
R:Jig
Q: 180
K:F
M:6/8
L:1/8
|:A|d3 ed^c|dAG FED|d3 c=BA|GAF EDC|
f3 ed^c|dcB AGF|GFG EAG|FDD D2:|
|:a|bag afd|bag afd|ecg efg|efd gec|
|1bag afd|bag afd|^cde Aae|fdd d2:|
|2def efg|fga gab|agf gfe|fdd d2||
